X:1
T:Cotton Baggin'
S:The Skillet Lickers (1928)
M:C|
L:1/8
R:Reel
D:Columbia 15404-D (78 RPM), Gid Tanner and His Skillet Lickers (1929)
D:Document DOCD 8058, The Skillet Lickers vol. 3
F:https://www.slippery-hill.com/recording/cotton-baggin
Z:Transcribed by Andrew Kuntz
K:G
[G_B]-|[G=B]ABc dcBA|[G2B2][GA][GB] [G2B2] [G2B2]-|[GB]ABc dcBA|+slide+[A2A2][AA][AA] [A2A2][A2A2]-|
[AA]Bcd edcB|[A2A2][AA][AA] [A2A2]AF|DFAB cAFD|[G2B2][GB][GB][G2B2]:|
|:+slide+g2-|gaba baba|gfga gede|gfgg bgbg|agab afdf|
afaf abag|fefg fgfe|dfdf bgaf|[B2g2][Bg][Bg] [B2g2]:|]

